!!!COM: Bach, Johann Sebastian
!!!CDT: 1685/3//-1750/7/28/
!!!OTL@@DE: O Haupt voll Blut und Wunden
!!!AGN: 4-Part Chorale
!!!SCT: BH 098
!!!SCT: BWV 244
**harm	**root	**kern	**kern	**kern	**kern
!	!	!bass	!tenor	!alto	!soprno
*	*Iorgan	*Iorgan	*Iorgan	*Iorgan	*Iorgan
*	*	*clefF4	*clefF4	*clefG2	*clefG2
*M4/4	*M4/4	*M4/4	*M4/4	*M4/4	*M4/4
*met(c)	*met(c)	*met(c)	*met(c)	*met(c)	*met(c)
*MM60	*MM60	*MM60	*MM60	*MM60	*MM60
*k[f#c#g#d#a#e#b#]	*k[f#c#g#d#a#e#b#]	*k[f#c#g#d#a#e#b#]	*k[f#c#g#d#a#e#b#]	*k[f#c#g#d#a#e#b#]	*k[f#c#g#d#a#e#b#]
*C#:	*C#:	*C#:	*C#:	*C#:	*C#:
*>[A,A,B]	*>[A,A,B]	*>[A,A,B]	*>[A,A,B]	*>[A,A,B]	*>[A,A,B]
*>A	*>A	*>A	*>A	*>A	*>A
I	4DD	4C#	4G#	4c#	4e#
=1	=1	=1	=1	=1	=1
IV	4GG	4F#	4F#	4c#	4a#
Ib	4DD	4E#	4G#	4c#	4g#
IVb	8GG	8AA#	8A#	8c#	4f#
V7b	8AA	8BB#	8G#	8d#	.
I	4DD	4C#	4G#	8d#	4e#
.	.	.	.	8c#	.
=2	=2	=2	=2	=2	=2
ii7b	4EE	4FF#	4A#	4c#	2d#
V	4AA	4GG#	4G#	4B#	.
I;	4DD;	4C#;	4G#;	4c#;	4e#;
viib/vi	4AA#	4BB#	4G##	4d#	4b#
=3	=3	=3	=3	=3	=3
vi	4BB	8AA#	4E#	8c#	4cc#
.	.	8BB#	.	8d#	.
vib	4BB	8C#	4A#	4e#	4cc#
.	.	8D#	.	.	.
V/vi	4FF#	4E#	4A#	4e#	8b#
.	.	.	.	.	8a#
V/vi	4FF#	4EE#	4G##	8e#	4b#
.	.	.	.	8d#	.
=4	=4	=4	=4	=4	=4
vi;	2.BB;	2.AA#;	2.A#;	2.c#;	2.a#;
=:|!	=:|!	=:|!	=:|!	=:|!	=:|!
*>B	*>B	*>B	*>B	*>B	*>B
vi	4BB	4A#	4e#	8a#	4cc#
.	.	.	.	8g#	.
=5	=5	=5	=5	=5	=5
viib	4CC#	4D#	8d#	4f#	8b#
.	.	.	8c#	.	8a#
iii	4FF#	4E#	4B#	8e#	4g#
.	.	.	.	8d#	.
IV	4GG	8F#	8A#	4c#	4a#
.	.	8E#	8G#	.	.
viib	4CC#	4D#	8F#	4f#	4b#
.	.	.	8G#	.	.
!!linebreak: 2
=6	=6	=6	=6	=6	=6
IVc	4GG	2C#	4A#	4f#	2cc#
I	4DD	.	8G#	8e#	.
.	.	.	8F#	8d#	.
I;	4DD;	4C#;	4G#;	4e#;	4cc#;
I	4DD	4C#	4c#	4e#	4g#
=7	=7	=7	=7	=7	=7
IV	4GG	4F#	4c#	4f#	4a#
I	4DD	4C#	8c#	4e#	4g#
.	.	.	8B#	.	.
ii	4EE	8D#	4A#	4e#	4f#
.	.	8E#	.	.	.
iib	4EE	8F#	4A#	4d#	4f#
.	.	8G#	.	.	.
=8	=8	=8	=8	=8	=8
VI;	2.BB;	2.A#;	2.A#;	2.c##;	2.e#;
V7b/V	4EE	4F##	4A#	4d#	4cc#
=9	=9	=9	=9	=9	=9
V	4AA	4G#	4G#	4d#	8b#
.	.	.	.	.	8cc#
Vb	4AA	4BB#	8G#	4d#	4dd#
.	.	.	8F##	.	.
Ib	4DD	8E#	8G#	4e#	4cc#
.	.	8F##	8A#	.	.
V	4AA	4G#	8B#	4d#	4b#
.	.	.	8G#	.	.
=10	=10	=10	=10	=10	=10
vib	4BB	4C#	8E#	4e#	2a#
.	.	.	8A#	.	.
V/V	4EE	4D#	4F##	4d#	.
V;	4AA;	4GG#;	4G#;	4d#;	4b#;
I	4DD	8C#	4G#	4c#	4e#
.	.	8BB#	.	.	.
=11	=11	=11	=11	=11	=11
IVb	4GG	4AA#	4F#	8c#	4f#
.	.	.	.	8B#	.
Ic	4DD	4GG#	4G#	4c#	4e#
ii7b	4EE	4FF#	4A#	4c#	4d#
V	4AA	4GG#	8D#	4B#	4g#
.	.	.	8G#	.	.
=12	=12	=12	=12	=12	=12
I;	2.DD;	2.C#;	2.G#;	2.c#;	2.e#;
==	==	==	==	==	==
*-	*-	*-	*-	*-	*-
!!chor2scor: -l 2 -s 0.6 -o %b.pmx
!!!YEC: Copyright 1994, David Huron
!!!YEC: Changes/Additions 2001 by Craig Stuart Sapp
!!!YEN: United States of America
!!!SMA: 371 Bach Chorales, edited by Ludwig Erk, C.F. Peters
!!!PDT: 1850, 1865
!!!ONB: Harmony and Root analysis done manually by Craig Sapp
